X: 1
T: The Galway Rambler
R: reel
M: 4/4
L: 1/8
K: Gmaj
(3GGG dG eGdG| (3GGG dB AGEF | GFGA BABd | gedB AGEF |
(3GGG dG eGdG| (3GGG dB AGEF | GFGA BABd | gedB A2 Bd ||
gfgb a2ab|gabg agef|~g3 b a2ab|gedB A2 Bd|
gabg gabg | gabg a2ga|bgag (3efg fa|gedB AGEF||


Tune 634	Setting 13662

